img/faqs/purchasing-icon.svg

<?xml version="1.0" encoding="UTF-8"?>
<svg width="88px" height="88px" viewBox="0 0 88 88" version="1.1" xmlns="http://www.w3.org/2000/svg" xmlns:xlink="http://www.w3.org/1999/xlink">
    <!-- Generator: Sketch 51.3 (57544) - http://www.bohemiancoding.com/sketch -->
    <title>purchasing-icon</title>
    <desc>Created with Sketch.</desc>
    <defs>
        <polygon id="path-1" points="0 0.0004 87.9716 0.0004 87.9716 87.9724 0 87.9724"></polygon>
    </defs>
    <g id="FAQs-&amp;-Account" stroke="none" stroke-width="1" fill="none" fill-rule="evenodd">
        <g id="TT-FAQs" transform="translate(-825.000000, -1055.000000)">
            <g id="purchasing-icon" transform="translate(825.000000, 1055.000000)">
                <mask id="mask-2" fill="white">
                    <use xlink:href="#path-1"></use>
                </mask>
                <g id="Clip-2"></g>
                <path d="M-0.0004,43.9844 C-0.0004,56.1304 4.9246,67.1274 12.8866,75.0864 C20.8446,83.0474 31.8416,87.9724 43.9866,87.9724 C56.1296,87.9724 67.1286,83.0474 75.0896,75.0864 C83.0506,67.1274 87.9716,56.1304 87.9716,43.9844 C87.9716,31.8384 83.0506,20.8444 75.0896,12.8814 C67.1286,4.9234 56.1296,0.0004 43.9866,0.0004 C19.6946,0.0004 -0.0004,19.6934 -0.0004,43.9844 Z M43.9866,4.4234 C22.1386,4.4234 4.4236,22.1374 4.4236,43.9844 C4.4236,54.9114 8.8536,64.8024 16.0136,71.9594 C23.1686,79.1184 33.0616,83.5484 43.9866,83.5484 C54.9116,83.5484 64.8036,79.1184 71.9626,71.9594 C79.1216,64.8024 83.5476,54.9114 83.5476,43.9844 C83.5476,33.0614 79.1216,23.1694 71.9626,16.0094 C64.8036,8.8504 54.9116,4.4234 43.9866,4.4234 Z M56.9966,75.4354 C61.1736,73.7054 64.9266,71.1754 68.0536,68.0484 C71.1806,64.9214 73.7056,61.1714 75.4356,56.9944 C77.1016,52.9774 78.0186,48.5794 78.0186,43.9844 C78.0186,39.3884 77.1016,34.9954 75.4356,30.9744 C73.7056,26.8004 71.1806,23.0484 68.0536,19.9204 C64.9266,16.7924 61.1736,14.2674 56.9926,12.5374 C52.9786,10.8714 48.5826,9.9534 43.9866,9.9534 C39.3926,9.9534 34.9976,10.8714 30.9786,12.5374 C26.8006,14.2674 23.0496,16.7924 19.9226,19.9204 C16.7956,23.0484 14.2666,26.7974 12.5366,30.9784 C10.8746,34.9954 9.9556,39.3884 9.9556,43.9844 C9.9556,48.5794 10.8746,52.9774 12.5366,56.9944 C14.2696,61.1714 16.7956,64.9214 19.9226,68.0484 C23.0496,71.1754 26.8006,73.7054 30.9786,75.4354 C34.9946,77.0974 39.3926,78.0164 43.9866,78.0164 C48.5826,78.0164 52.9786,77.0974 56.9966,75.4354 Z M43.9866,73.5924 C48.0106,73.5924 51.8386,72.7964 55.3216,71.3574 C58.9306,69.8644 62.1876,67.6614 64.9266,64.9214 C67.6656,62.1864 69.8636,58.9274 71.3566,55.3184 C72.8006,51.8384 73.5946,48.0104 73.5946,43.9844 C73.5946,39.9624 72.8006,36.1324 71.3566,32.6534 C69.8636,29.0454 67.6656,25.7864 64.9266,23.0474 C62.1876,20.3084 58.9266,18.1084 55.3186,16.6124 C51.8386,15.1724 48.0106,14.3774 43.9866,14.3774 C39.9616,14.3774 36.1366,15.1724 32.6576,16.6124 C29.0476,18.1084 25.7846,20.3084 23.0496,23.0474 C20.3106,25.7864 18.1086,29.0454 16.6136,32.6534 C15.1756,36.1324 14.3766,39.9624 14.3766,43.9844 C14.3766,48.0104 15.1756,51.8384 16.6136,55.3184 C18.1086,58.9274 20.3106,62.1864 23.0496,64.9214 C25.7846,67.6614 29.0446,69.8644 32.6526,71.3574 C36.1336,72.7964 39.9616,73.5924 43.9866,73.5924 Z M45.6986,23.9424 C46.9166,23.9424 47.9096,24.9304 47.9096,26.1544 C47.9096,27.3764 46.9166,28.3664 45.6986,28.3664 L38.6296,28.3664 C38.5596,28.3664 38.5066,28.3724 38.4786,28.3844 L38.4416,28.4014 C38.4156,28.4184 38.3876,28.4434 38.3536,28.4794 C38.3156,28.5264 38.2866,28.5694 38.2766,28.6044 L38.2726,28.6114 C38.2676,28.6464 38.2676,28.6994 38.2726,28.7664 L39.7896,41.1804 L51.0596,41.1804 C52.2786,41.1804 53.2696,42.1714 53.2696,43.3924 C53.2696,44.6114 52.2786,45.6014 51.0596,45.6014 L40.3306,45.6014 L40.4296,46.4294 C40.5156,47.1794 40.4876,47.9074 40.3536,48.6264 C40.2106,49.3614 39.9486,50.0744 39.5666,50.7684 C38.2056,53.0784 37.0006,55.5504 35.6646,57.8854 C35.6326,57.9614 35.6126,58.0224 35.6126,58.0714 C35.6126,58.1134 35.6346,58.1734 35.6766,58.2494 C35.7156,58.3134 35.7576,58.3584 35.7966,58.3804 C35.8356,58.4044 35.8996,58.4174 35.9866,58.4174 L58.8646,58.4174 C60.0876,58.4174 61.0776,59.4064 61.0776,60.6284 C61.0776,61.8504 60.0876,62.8404 58.8646,62.8404 L35.9866,62.8404 C35.1376,62.8404 34.3346,62.6234 33.6196,62.2204 C32.9096,61.8114 32.3106,61.2304 31.8746,60.4934 C31.4446,59.7614 31.2166,58.9564 31.2046,58.1374 C31.1916,57.3204 31.3896,56.5114 31.8006,55.7654 L35.6986,48.6454 C35.8536,48.3564 35.9616,48.0754 36.0166,47.7944 C36.0636,47.5324 36.0746,47.2484 36.0396,46.9334 L35.8776,45.6014 L27.9196,45.6014 C26.6966,45.6014 25.7076,44.6114 25.7076,43.3924 C25.7076,42.1714 26.6966,41.1804 27.9196,41.1804 L35.3376,41.1804 L33.8856,29.3004 C33.8016,28.6154 33.8626,27.9424 34.0606,27.2984 C34.2616,26.6664 34.5946,26.0804 35.0566,25.5584 C35.4776,25.0834 35.9616,24.7124 36.5056,24.4394 L36.6626,24.3594 C37.2796,24.0854 37.9376,23.9424 38.6296,23.9424 L45.6986,23.9424 Z" id="Fill-1" fill="#FF5721" mask="url(#mask-2)"></path>
            </g>
        </g>
    </g>
</svg>

<svg height="88" viewBox="0 0 88 88" width="88" xmlns="http://www.w3.org/2000/svg" xmlns:xlink="http://www.w3.org/1999/xlink"><mask id="a" fill="#fff"><path d="m0 .0004h87.9716v87.972h-87.9716z" fill="#fff" fill-rule="evenodd"/></mask><path d="m-.0004 43.9844c0 12.146 4.925 23.143 12.887 31.102 7.958 7.961 18.955 12.886 31.1 12.886 12.143 0 23.142-4.925 31.103-12.886 7.961-7.959 12.882-18.956 12.882-31.102s-4.921-23.14-12.882-31.103c-7.961-7.958-18.96-12.881-31.103-12.881-24.292 0-43.987 19.693-43.987 43.984zm43.987-39.561c-21.848 0-39.563 17.714-39.563 39.561 0 10.927 4.43 20.818 11.59 27.975 7.155 7.159 17.048 11.589 27.973 11.589s20.817-4.43 27.976-11.589c7.159-7.157 11.585-17.048 11.585-27.975 0-10.923-4.426-20.815-11.585-27.975-7.159-7.159-17.051-11.586-27.976-11.586zm13.01 71.012c4.177-1.73 7.93-4.26 11.057-7.387s5.652-6.877 7.382-11.054c1.666-4.017 2.583-8.415 2.583-13.01 0-4.596-.917-8.989-2.583-13.01-1.73-4.174-4.255-7.926-7.382-11.054s-6.88-5.653-11.061-7.383c-4.014-1.666-8.41-2.584-13.006-2.584-4.594 0-8.989.918-13.008 2.584-4.178 1.73-7.929 4.255-11.056 7.383s-5.656 6.877-7.386 11.058c-1.662 4.017-2.581 8.41-2.581 13.006 0 4.595.919 8.993 2.581 13.01 1.733 4.177 4.259 7.927 7.386 11.054s6.878 5.657 11.056 7.387c4.016 1.662 8.414 2.581 13.008 2.581 4.596 0 8.992-.919 13.01-2.581zm-13.01-1.843c4.024 0 7.852-.796 11.335-2.235 3.609-1.493 6.866-3.696 9.605-6.436 2.739-2.735 4.937-5.994 6.43-9.603 1.444-3.48 2.238-7.308 2.238-11.334 0-4.022-.794-7.852-2.238-11.331-1.493-3.608-3.691-6.867-6.43-9.606s-6-4.939-9.608-6.435c-3.48-1.44-7.308-2.235-11.332-2.235-4.025 0-7.85.795-11.329 2.235-3.61 1.496-6.873 3.696-9.608 6.435-2.739 2.739-4.941 5.998-6.436 9.606-1.438 3.479-2.237 7.309-2.237 11.331 0 4.026.799 7.854 2.237 11.334 1.495 3.609 3.697 6.868 6.436 9.603 2.735 2.74 5.995 4.943 9.603 6.436 3.481 1.439 7.309 2.235 11.334 2.235zm1.712-49.65c1.218 0 2.211.988 2.211 2.212 0 1.222-.993 2.212-2.211 2.212h-7.069c-.07 0-.123.006-.151.018l-.037.017c-.026.017-.054.042-.088.078-.038.047-.067.09-.077.125l-.004.007c-.005.035-.005.088 0 .155l1.517 12.414h11.27c1.219 0 2.21.991 2.21 2.212 0 1.219-.991 2.209-2.21 2.209h-10.729l.099.828c.086.75.058 1.478-.076 2.197-.143.735-.405 1.448-.787 2.142-1.361 2.31-2.566 4.782-3.902 7.117-.032.076-.052.137-.052.186 0 .042.022.102.064.178.039.064.081.109.12.131.039.024.103.037.19.037h22.878c1.223 0 2.213.989 2.213 2.211s-.99 2.212-2.213 2.212h-22.878c-.849 0-1.652-.217-2.367-.62-.71-.409-1.309-.99-1.745-1.727-.43-.732-.658-1.537-.67-2.356-.013-.817.185-1.626.596-2.372l3.898-7.12c.155-.289.263-.57.318-.851.047-.262.058-.546.023-.861l-.162-1.332h-7.958c-1.223 0-2.212-.99-2.212-2.209 0-1.221.989-2.212 2.212-2.212h7.418l-1.452-11.88c-.084-.685-.023-1.358.175-2.002.201-.632.534-1.218.996-1.74.421-.475.905-.846 1.449-1.119l.157-.08c.617-.274 1.275-.417 1.967-.417z" fill="#ff5721" fill-rule="evenodd" mask="url(#a)"/></svg>
